X: 43590
T: Young Terrance McDonough
R: waltz
M: 3/4
K: Gminor
G>F|(D2G2) A>F|G4 GA|(B2d2) cB|c4 ~c2|(d2g2) (ge)|
(d2f2) d<c|{c}(B2A2) TG2|F4 GA|(B2A2G2)|g4 (fg)|
(a2f2) (fg)|f4 dc|(B2A2G2)|(^F2A2) Bc|(d2D2) GA|G4:|
|:G>F|(D2G2)G2|G4 GF|(D2B2)B2|B4 AG|(F2f2)f2|
(gfed)(cB)|(dbagfe|d4) dc|B2B2 cB|A2A2A2|(BABc)(d=e)|
f4 dc|B2B2B2|A2A2 (Bc)|(d2G2)(GA)|G4:|

